src/pos-icons/badge-account-alert-outline.svg

<svg height="24" viewBox="0 0 24 24" width="24" xmlns="http://www.w3.org/2000/svg"><path d="m15 3h-3v2h3v16h-10v-16h3v-2h-3a2 2 0 0 0 -2 2v16a2 2 0 0 0 2 2h10a2 2 0 0 0 2-2v-16a2 2 0 0 0 -2-2m-5 4a2 2 0 0 1 2 2 2 2 0 0 1 -2 2 2 2 0 0 1 -2-2 2 2 0 0 1 2-2m4 8h-8v-1c0-1.33 2.67-2 4-2s4 .67 4 2zm0 3h-8v-1h8zm-4 2h-4v-1h4zm1-15h-2v-4h2zm8 7v-5h2v5zm0 4v-2h2v2z"/></svg>

<?xml version="1.0" encoding="UTF-8"?><!DOCTYPE svg PUBLIC "-//W3C//DTD SVG 1.1//EN" "http://www.w3.org/Graphics/SVG/1.1/DTD/svg11.dtd"><svg xmlns="http://www.w3.org/2000/svg" xmlns:xlink="http://www.w3.org/1999/xlink" version="1.1" id="mdi-badge-account-alert-outline" width="24" height="24" viewBox="0 0 24 24"><path d="M15,3H12V5H15V21H5V5H8V3H5A2,2 0 0,0 3,5V21A2,2 0 0,0 5,23H15A2,2 0 0,0 17,21V5A2,2 0 0,0 15,3M10,7A2,2 0 0,1 12,9A2,2 0 0,1 10,11A2,2 0 0,1 8,9A2,2 0 0,1 10,7M14,15H6V14C6,12.67 8.67,12 10,12C11.33,12 14,12.67 14,14V15M14,18H6V17H14V18M10,20H6V19H10V20M11,5H9V1H11V5M19,12V7H21V12H19M19,16V14H21V16H19Z" /></svg>
